X: 41464
T: Two Wide Nickels
R: barndance
M: 4/4
K: Adorian
|:A,2A,B, CB,CB,|A,2A,B, CB,CA|BAGF EFGA|BAGF EDCB,|
A,2A,B, CDEG|A4 A2FE|D2f2f2ed|[K:A] cBAG [1 A4:|2 ABcd||
K:A
|:e2e2 e2e2|fefg a4|f4 fede|f2fa fecd|
e2e2 e2e2|fefg a4|eagf eagf|edcB [1 ABcd:|2 A4||

